X:1
T:I'm an Old Cowhand
T:-
C:Johnny Mercer
Z:All Rights Reserved
L:1/4
M:4/4
K:Eb
V:1 treble 
%%MIDI program 40
V:1
 B/B/ G E |:"Bb" F4- | F F/F/ A G |"Eb" E4- | E B/B/ G E |"Bb" F4- | F F/F/ A G |"Eb" B4- | %8
 B3 G/B/ ||"Cm7" c c c/ d c/ |"Gm" B G G G/B/ |"Cm7" c c c/ d c/ |"Gm" B G G G/B/ | %13
"Am7" c c"D7" c/ d c/ |"Gm7" B G"C7" c2 |"Fm7" G/G/ F"Bb7" E F |"Eb" E3/2 c/- c z | %17
"Bb" G/G/ F E F |1"Eb" E B/B/ G E :|2"Eb" E4 |] %20

